X:18190
T:Valse  5 temps
C:Trio Bouffard: Rabaterie
M:5/4
L:1/4
K:G
d|cABGd|cABGd|cABGG|FAG2:|\
D|FAGBd|cABGD|FAGBd|cAG2:|
